!!!OTL: O Jezu iakos cieszko skathowany
**kern
*staff1
=--
*clefC1
*k[b-]
1a
2a
2a
=-
1b-
2a
1a
2g
=-
2f
2e
1f
1f
=-
2r
2.b-
4b-
2b-
2b-
2b-
!!linebreak:original
=-
!LO:TX:Y=-32:t=P
1.a
2a
=-
2a
2g
1a
1a
=-
!LO:TX:Y=-32:t=P
1dd
1cc
=-
!LO:TX:Y=-35:t=P
2dd
1b-
2b-
=-
1a
1a
=-
!LO:TX:Y=-35:t=P
1g
2a
2b-
2.dd
4dd
=-
!!linebreak:original
2dd
2cc
2b-
2a
=-
!LO:TX:Y=-35:t=P
1b-
1r
=-
2r
2f
2g
2a
2b-
4b-
4b-
=-
!LO:TX:Y=-37:t=P
2b-
2a
2g
2g
1e
=-
!LO:TX:Y=-200:t=P
0f
=-=
*-
!!title: @{OTL}, @{GTL}, ed. @{ENC}
!!!pag:
!!!GTL: Hymnbook C
!!!EFL: 
!!!YEM: Creative Commons CC/BY/NC/SA 4.0
!!!ENC: Marcin Konik
!!!END: 2015-0m-dd
!!!EED: Marcin Konik
!!!EEV: 
!!!ONB: Encoded in vim by Marcin Konik
!!!CharacterEncoding: utf-8
!!!RDF**kern: l=long note in original notation
!!!RDF**kern: i=editorial accidental
!!muse2ps: z14jc180F
!!!COM: Anonim
!!!CDT: [?]
!!!TXO: Polish
!!!ODT: 
!!!GTL: Hymnbook C
!!!ARL: Opactwo św. Wojciecha, Staniątki 
!!!voices:	1
